X:33
T:La fleur de l'olivier
R:Chanson
O:France
B:Le livre des Chansons (Henri Davenson) n°33
Z:<anamnese@caramail.com> -- http://anamnese.fr.st
M:6/8
L:1/8
Q:1/4=80
K:Bb
F | B2 d f2 d | {ed}B3-B z z | B c d f-e d | {ed}c3-c2 c | c2-d d2 {c}B |!
d-c3 zz | d e d c-B c | B A B c A B | c3-c z c | e2 c d2 A | {c}B3-B zz ||
W:La fleur de l'olivier que vous avez aimée,
W:Charmante beauté, Et vos beaux yeux charmants,
W:Que mon coeur aime tant, les faudra-t-il quitter ? /.../

